packages/match-icons/product/svg/studio-logo.svg

<svg fill="none" height="32" viewBox="0 0 32 32" width="32" xmlns="http://www.w3.org/2000/svg"><path d="m4 8h27c.2652 0 .5196-.10536.7071-.29289.1875-.18754.2929-.44189.2929-.70711v-6c0-.265216-.1054-.51957-.2929-.707107-.1875-.187536-.4419-.292893-.7071-.292893h-12c-.2652 0-.5196.105357-.7071.292893-.1875.187537-.2929.441891-.2929.707107v5h-14c-1.06087 0-2.07828.42143-2.82843 1.17157-.750143.75015-1.17157 1.76756-1.17157 2.82843 0 1.0609.421427 2.0783 1.17157 2.8284.75015.7502 1.76756 1.1716 2.82843 1.1716h4v5c0 .2652.10536.5196.29289.7071.18754.1875.44189.2929.70711.2929h19c.5304 0 1.0391.2107 1.4142.5858s.5858.8838.5858 1.4142-.2107 1.0391-.5858 1.4142-.8838.5858-1.4142.5858h-27c-.265216 0-.51957.1054-.707107.2929-.187536.1875-.292893.4419-.292893.7071v6c0 .2652.105357.5196.292893.7071.187537.1875.441891.2929.707107.2929h12c.2652 0 .5196-.1054.7071-.2929s.2929-.4419.2929-.7071v-5h14c1.0609 0 2.0783-.4214 2.8284-1.1716.7502-.7501 1.1716-1.7675 1.1716-2.8284s-.4214-2.0783-1.1716-2.8284c-.7501-.7502-1.7675-1.1716-2.8284-1.1716h-4v-5c0-.2652-.1054-.5196-.2929-.7071s-.4419-.2929-.7071-.2929h-19c-.53043 0-1.03914-.2107-1.41421-.5858-.37508-.3751-.58579-.8838-.58579-1.4142 0-.53043.21071-1.03914.58579-1.41421.37507-.37508.88378-.58579 1.41421-.58579zm16-6h10v4h-10zm-8 28h-10v-4h10zm10-12h-12v-4h12z" fill="#394762"/></svg>

<svg width="32" height="32" viewBox="0 0 32 32" fill="none" xmlns="http://www.w3.org/2000/svg">
<path d="M4 8H31C31.2652 8 31.5196 7.89464 31.7071 7.70711C31.8946 7.51957 32 7.26522 32 7V1C32 0.734784 31.8946 0.48043 31.7071 0.292893C31.5196 0.105357 31.2652 0 31 0L19 0C18.7348 0 18.4804 0.105357 18.2929 0.292893C18.1054 0.48043 18 0.734784 18 1V6H4C2.93913 6 1.92172 6.42143 1.17157 7.17157C0.421427 7.92172 0 8.93913 0 10C0 11.0609 0.421427 12.0783 1.17157 12.8284C1.92172 13.5786 2.93913 14 4 14H8V19C8 19.2652 8.10536 19.5196 8.29289 19.7071C8.48043 19.8946 8.73478 20 9 20H28C28.5304 20 29.0391 20.2107 29.4142 20.5858C29.7893 20.9609 30 21.4696 30 22C30 22.5304 29.7893 23.0391 29.4142 23.4142C29.0391 23.7893 28.5304 24 28 24H1C0.734784 24 0.48043 24.1054 0.292893 24.2929C0.105357 24.4804 0 24.7348 0 25L0 31C0 31.2652 0.105357 31.5196 0.292893 31.7071C0.48043 31.8946 0.734784 32 1 32H13C13.2652 32 13.5196 31.8946 13.7071 31.7071C13.8946 31.5196 14 31.2652 14 31V26H28C29.0609 26 30.0783 25.5786 30.8284 24.8284C31.5786 24.0783 32 23.0609 32 22C32 20.9391 31.5786 19.9217 30.8284 19.1716C30.0783 18.4214 29.0609 18 28 18H24V13C24 12.7348 23.8946 12.4804 23.7071 12.2929C23.5196 12.1054 23.2652 12 23 12H4C3.46957 12 2.96086 11.7893 2.58579 11.4142C2.21071 11.0391 2 10.5304 2 10C2 9.46957 2.21071 8.96086 2.58579 8.58579C2.96086 8.21071 3.46957 8 4 8V8ZM20 2H30V6H20V2ZM12 30H2V26H12V30ZM22 18H10V14H22V18Z" fill="#394762"/>
</svg>
